X:5628
T:Rond. CJF.096
T:Pleyel's Rondo. CJF.096
O:england
M:3/8
L:1/16
Q:50
C:Pleyel
S: C.J.Fox MS, 1829/33, Beverley,E.Yorks.
R:Rondo
A:East Yorkshire
B:Kidson Coll.Mitchell Lib.M1805
N:"FromWatson's"is in title line - PJH.
K:G
"Allegretto"{a}(gf/g/) (dd').b.g|{g}(fe/f/) (dc').a.f|\
(gb).g.d(ea)|(Bd).g.B(Af)|(gf/g/) (db).g.d'|(fe/f/) (da).f.c'|\
(bg).ea.(Af)|(Gg).d.BG2z2|(a^g/a/) (fdcA)|
(Gb)(Ac')(Bd')|(cc').c'.a(ea)|g4f2|{a}(gf/g/) (db).g.d'|(fe/f/)\
(da).f.c'|(bg).e.a(Af)|g2z2(ge)|d2z2(ec)|B2z2(db)|(ca)(Bg)(Af)|
g2z2(ge)|d2z2(ec)|B2z2(db)|.c.a.B.g.A.f|hz6|g(f/g/) dbgd'|\
f(e/f/) (da).f.c'|(bg).d.B(Aa)|g4f2|g(f/g/) (db).g.d'|f(e/f/) (da).f.c'|
(bg).e.a(Af)|g6|(gd').b.g(af)|g6|(gd').b.g(af)|(gd').d'.d' c'(b/c'/)|\
.b.b.b.b a(g/a/)|(gd').d'.d' c'(b/c'/)|.b.b.b.b a(g/a/)|.g(gb).g.d.B|\
(G2g2).g2|g6||


